client/src/assets/icons/businessman.svg

<svg width="58" height="58" viewBox="0 0 58 58" fill="none" xmlns="http://www.w3.org/2000/svg">
<path d="M49.3 49.0101V41.7601C49.3 39.7301 49.01 37.7001 47.85 35.6701C46.69 33.6401 45.24 31.9001 43.21 30.7401C41.18 29.2901 36.83 29.0001 34.8 29.0001L30.16 33.9301L31.9 37.7001V46.4001L29 49.5901L26.1 46.4001V37.7001L28.13 33.9301L23.2 29.0001C20.88 29.0001 16.53 29.2901 14.5 30.7401C12.47 31.9001 11.31 33.6401 10.15 35.6701C8.99001 37.7001 8.70001 39.4401 8.70001 41.7601V49.0101C8.70001 49.0101 16.24 52.2001 29 52.2001C41.76 52.2001 49.3 49.0101 49.3 49.0101ZM29 6.09009C23.49 6.09009 20.3 11.3101 21.17 17.1101C22.04 22.9101 24.94 26.9701 29 26.9701C33.06 26.9701 35.96 22.9101 36.83 17.1101C37.7 11.0201 34.51 6.09009 29 6.09009Z" fill="#011034"/>
</svg>

<svg xmlns="http://www.w3.org/2000/svg" width="58" height="58" fill="none" viewBox="0 0 58 58">
  <path fill="#011034" d="M49.3 49.01v-7.25c0-2.03-.29-4.06-1.45-6.09-1.16-2.03-2.61-3.77-4.64-4.93C41.18 29.29 36.83 29 34.8 29l-4.64 4.93 1.74 3.77v8.7L29 49.59l-2.9-3.19v-8.7l2.03-3.77L23.2 29c-2.32 0-6.67.29-8.7 1.74-2.03 1.16-3.19 2.9-4.35 4.93-1.16 2.03-1.45 3.77-1.45 6.09v7.25S16.24 52.2 29 52.2c12.76 0 20.3-3.19 20.3-3.19ZM29 6.09c-5.51 0-8.7 5.22-7.83 11.02.87 5.8 3.77 9.86 7.83 9.86 4.06 0 6.96-4.06 7.83-9.86.87-6.09-2.32-11.02-7.83-11.02Z"/>
</svg>
